X:1
T:Title
%%score 1 2
L:1/8
Q:1/4=140
M:6/4
K:D
V:1 treble nm="Grand Piano, Soprano"
V:2 bass nm="Choir Pad, While Here"
V:1
 [DF]2 [DF]2 [DF]2 [CG]4 [CE]2 | [DA]12 | D2 D2 D2 [DG]4 D2 | [DF]12 | [B,E]6 [B,D]4 B,2 | [CE]12 | %6
w: By~Will~Lamartine~Thompson * * * *||||||
 [CA]2 [CA]2 [EA]2 [EB]4 E2 | [Ec]12 | [CA]2 [CA]2 [CA]2 [D^G]4 [E=G]2 | [DF]12 | %10
w: ||||
 [DE]6 [D=F]4 [DF]2 | [DF]2 [CE]2 [DF]2 [EG]2 [DF]2 [EG]2 | [FA]4 [DF]2 [CF]4 [CE]2 | D12 |] %14
w: ||||
V:2
 [D,A,]2 [D,A,]2 [D,A,]2 [E,A,]4 [E,A,]2 | [F,A,]12 | [G,B,]2 [G,B,]2 [G,B,]2 [G,^A,]4 [G,A,]2 | %3
 [D,A,]12 | [E,^G,]6 [E,G,]4 [E,G,]2 | [A,,A,]12 | [A,,A,]2 [A,,A,]2 [C,A,]2 [E,^G,]4 [E,G,]2 | %7
 [A,,A,]12 | [A,,E,]2 [A,,E,]2 [A,,E,]2 [B,,E,]4 [C,A,]2 | [D,A,]12 | [G,B,]6 [^G,B,]4 [G,B,]2 | %11
 A,12- | A,4 A,2 [A,,A,]4 [A,,G,]2 | [D,F,]12 |] %14

